img/ui/exit-tool/hover.svg

<svg width="100" height="100" viewBox="0 0 100 100" fill="none" xmlns="http://www.w3.org/2000/svg">
<rect x="10" y="10" width="80" height="80" rx="17" fill="#D3D1BB" stroke="#616353" stroke-width="4"/>
<path d="M77.7574 30.4236C78.5384 31.2047 78.5384 32.471 77.7574 33.252L65.252 45.7575C62.9088 48.1007 62.9088 51.8996 65.252 54.2428L77.7571 66.748C78.5381 67.529 78.5381 68.7953 77.7571 69.5764L69.5762 77.7573C68.7951 78.5384 67.5288 78.5384 66.7477 77.7573L54.2426 65.2522C51.8995 62.9091 48.1005 62.9091 45.7573 65.2522L33.2523 77.7573C32.4712 78.5384 31.2049 78.5384 30.4238 77.7573L22.2429 69.5764C21.4619 68.7953 21.4619 67.529 22.2429 66.7479L34.748 54.2428C37.0912 51.8996 37.0912 48.1007 34.748 45.7575L22.2426 33.2521C21.4616 32.471 21.4616 31.2047 22.2426 30.4236L30.4236 22.2427C31.2046 21.4616 32.4709 21.4616 33.252 22.2427L45.7573 34.7481C48.1005 37.0912 51.8995 37.0912 54.2426 34.7481L66.748 22.2427L65.3338 20.8284L66.748 22.2427C67.5291 21.4616 68.7954 21.4616 69.5764 22.2427L77.7574 30.4236Z" stroke="#9C9F83" stroke-width="4"/>
</svg>

<svg width="100" height="100" fill="none" xmlns="http://www.w3.org/2000/svg"><rect x="10" y="10" width="80" height="80" rx="17" fill="#D3D1BB" stroke="#616353" stroke-width="4"/><path d="M77.757 30.424a2 2 0 0 1 0 2.828L65.252 45.757a6 6 0 0 0 0 8.486l12.505 12.505a2 2 0 0 1 0 2.828l-8.18 8.181a2 2 0 0 1-2.83 0L54.244 65.252a6 6 0 0 0-8.486 0L33.252 77.757a2 2 0 0 1-2.828 0l-8.181-8.18a2 2 0 0 1 0-2.83l12.505-12.504a6 6 0 0 0 0-8.486L22.243 33.252a2 2 0 0 1 0-2.828l8.18-8.181a2 2 0 0 1 2.829 0l12.505 12.505a6 6 0 0 0 8.486 0l12.505-12.505-1.414-1.415 1.414 1.415a2 2 0 0 1 2.828 0l8.181 8.18Z" stroke="#9C9F83" stroke-width="4"/></svg>
